X:1
T:Title
%%score { 1 | ( 2 3 ) }
L:1/8
Q:1/4=100
M:6/8
K:F
V:1 treble nm="Grand Piano"
V:2 bass 
V:3 bass 
V:1
 [A,CF]2 [A,CF] [A,CF]2 [CEG] | [CFA]2 [CFA] [CFA]3 | [B,EG][B,EG][B,EG] [B,EG][CFA][B,CG] | %3
w: Wm.~J.~Kirkpatrick * * *|||
 [A,CF]3 [A,CF]3 | [A,CF]2 [A,CF] [A,CF]2 [CEG] | [CFA]2 [CFA] [CFA]3 | %6
w: |||
 [B,EG][B,EG][B,EG] [B,EG][CFA][B,CG] | [A,CF]3 [A,CF]3 | [CEG]2 [CFA] [CEG]2 [B,C] | %9
w: |||
 [A,CF]2 [CEG] [CFA]3 | [CEG]2 [CFA] [CEG]2 [B,C] | [A,CF]2 [CEG] A3 | c2 c AGF | %13
w: ||||
[M:15/16] FG/-G/[CFA][DFB]3/2- [DFB]3 |[M:3/4] [FA][FA] [FA][FA] [CG][CF] | [EG]3 F3 | BB BB BB | %17
w: ||||
 BA A A3 | [EG][EG] [EG][EG] [DF][EG] | Ac c c3 | cc cA GF |[M:15/16] FG/-G/A[DFB]3/2- [DFB]3 | %22
w: |||||
[M:3/4] [CFA][CFA] [CFA][CFA] [B,CG][A,CF] | [B,EG]3 [A,CF]3 |] %24
w: ||
V:2
 F,2 F, F,2 C, | F,2 F, F,3 | C,C,C, C,C,C, | F,3 F,3 | F,2 F, F,2 C, | F,2 F, F,3 | %6
 C,C,C, C,C,C, | F,3 F,3 | C,2 C, C,2 C, | C,2 C, F,3 | C,2 C, C,2 C, | C,2 C, [F,CF]3 | %12
 [F,A,F]2 [F,A,F] [CF][B,E][F,A,] |[M:15/16] .A,3/2 z3/2 z3/2 z3 | %14
[M:3/4] [C,C][C,C] [C,C][C,C] [C,B,][C,A,] | [C,B,]3 [F,A,C]3 | %16
 [F,DF][F,DF] [F,DF][F,DF] [F,DF][F,DF] | [F,DF][F,CF] [F,CF] [F,CF]3 | %18
 [C,C][C,C] [C,C][C,C] [C,C][C,C] | [F,CF][F,A,F] [F,A,F] [F,A,F]3 | %20
 [F,A,F][F,A,F] [F,A,F][F,CF] [F,B,C][F,A,C] | %21
[M:15/16] [F,A,C][F,B,C]/-[F,B,C]/[F,_EF]B,,3/2- B,,3 |[M:3/4] C,C, C,C, C,C, | C,3 F,3 |] %24
V:3
 x6 | x6 | x6 | x6 | x6 | x6 | x6 | x6 | x6 | x6 | x6 | x6 | z3 .F,3 | %13
[M:15/16] [F,C]-[F,B,C]/-[F,B,C]/F,B,,3/2- B,,3 |[M:3/4] x6 | x6 | x6 | x6 | x6 | x6 | x6 | %21
[M:15/16] x15/2 |[M:3/4] x6 | x6 |] %24

